images/portal/4221.svg

<?xml version="1.0" standalone="no"?><!DOCTYPE svg PUBLIC "-//W3C//DTD SVG 1.1//EN" "http://www.w3.org/Graphics/SVG/1.1/DTD/svg11.dtd"><svg xmlns:xlink="http://www.w3.org/1999/xlink" version="1.1" class="highcharts-root" style="font-family:arial;font-size:9pt;" xmlns="http://www.w3.org/2000/svg" width="485" height="415"><desc>Created with Highstock 5.0.14</desc><defs><clipPath id="highcharts-b9iaikf-7"><rect x="0" y="0" width="428" height="235" fill="none"></rect></clipPath><clipPath id="highcharts-b9iaikf-8"><rect x="0" y="0" width="428" height="235" fill="none"></rect></clipPath></defs><rect fill="#fbfbfb" class="highcharts-background" x="0" y="0" width="485" height="415" rx="0" ry="0"></rect><rect fill="none" class="highcharts-plot-background" x="47" y="109" width="428" height="235"></rect><g class="highcharts-label" style="cursor:pointer;" transform="translate(10,451)"><text x="0" y="0"><tspan>&gt; Indikator-Details</tspan></text></g><g class="highcharts-pane-group"></g><g class="highcharts-grid highcharts-xaxis-grid "><path fill="none" class="highcharts-grid-line" d="M 132.5 109 L 132.5 344" opacity="1"></path><path fill="none" class="highcharts-grid-line" d="M 217.5 109 L 217.5 344" opacity="1"></path><path fill="none" class="highcharts-grid-line" d="M 303.5 109 L 303.5 344" opacity="1"></path><path fill="none" class="highcharts-grid-line" d="M 388.5 109 L 388.5 344" opacity="1"></path><path fill="none" class="highcharts-grid-line" d="M 474.5 109 L 474.5 344" opacity="1"></path><path fill="none" class="highcharts-grid-line" d="M 46.5 109 L 46.5 344" opacity="1"></path></g><g class="highcharts-grid highcharts-yaxis-grid "><path fill="none" stroke="#e6e6e6" stroke-width="1" class="highcharts-grid-line" d="M 47 344.5 L 475 344.5" opacity="1"></path><path fill="none" stroke="#e6e6e6" stroke-width="1" class="highcharts-grid-line" d="M 47 297.5 L 475 297.5" opacity="1"></path><path fill="none" stroke="#e6e6e6" stroke-width="1" class="highcharts-grid-line" d="M 47 250.5 L 475 250.5" opacity="1"></path><path fill="none" stroke="#e6e6e6" stroke-width="1" class="highcharts-grid-line" d="M 47 203.5 L 475 203.5" opacity="1"></path><path fill="none" stroke="#e6e6e6" stroke-width="1" class="highcharts-grid-line" d="M 47 156.5 L 475 156.5" opacity="1"></path><path fill="none" stroke="#e6e6e6" stroke-width="1" class="highcharts-grid-line" d="M 47 108.5 L 475 108.5" opacity="1"></path></g><g class="highcharts-grid highcharts-yaxis-grid "></g><rect fill="none" class="highcharts-plot-border" x="47" y="109" width="428" height="235"></rect><g class="highcharts-axis highcharts-xaxis "><path fill="none" class="highcharts-axis-line" stroke="#ccd6eb" stroke-width="1" d="M 47 344.5 L 475 344.5"></path></g><g class="highcharts-axis highcharts-yaxis "><path fill="none" class="highcharts-axis-line" d="M 47 109 L 47 344"></path></g><g class="highcharts-axis highcharts-yaxis "><path fill="none" class="highcharts-axis-line" d="M 475 109 L 475 344"></path></g><g class="highcharts-series-group"><g class="highcharts-series highcharts-series-0 highcharts-column-series highcharts-color-undefined " transform="translate(47,109) scale(1 1)" clip-path="url(#highcharts-b9iaikf-8)"><rect x="20" y="46" width="21" height="190" fill="#FF8028" class="highcharts-point"></rect><rect x="191" y="39" width="21" height="197" fill="#FF8028" class="highcharts-point"></rect><rect x="362" y="25" width="21" height="211" fill="#FF8028" class="highcharts-point"></rect></g><g class="highcharts-markers highcharts-series-0 highcharts-column-series highcharts-color-undefined " transform="translate(47,109) scale(1 1)" clip-path="none"></g><g class="highcharts-series highcharts-series-1 highcharts-column-series highcharts-color-undefined " transform="translate(47,109) scale(1 1)" clip-path="url(#highcharts-b9iaikf-8)"><rect x="45" y="164" width="21" height="72" fill="#B375AB" class="highcharts-point"></rect><rect x="217" y="142" width="21" height="94" fill="#B375AB" class="highcharts-point"></rect><rect x="388" y="103" width="21" height="133" fill="#B375AB" class="highcharts-point"></rect></g><g class="highcharts-markers highcharts-series-1 highcharts-column-series highcharts-color-undefined " transform="translate(47,109) scale(1 1)" clip-path="none"></g><g class="highcharts-series highcharts-series-2 highcharts-line-series highcharts-color-undefined " transform="translate(47,109) scale(1 1)" clip-path="url(#highcharts-b9iaikf-8)"><path fill="none" d="M 42.8 47 L 128.4 47 L 214 47 L 299.6 47 L 385.2 47" class="highcharts-graph" stroke="#444444" stroke-width="2" stroke-dasharray="6,2"></path></g><g class="highcharts-markers highcharts-series-2 highcharts-line-series highcharts-color-undefined " transform="translate(47,109) scale(1 1)" clip-path="none"></g></g><text x="10" text-anchor="start" class="highcharts-title" style="color:#000000;font-size:1.1em;font-weight:bold;fill:#000000;" y="20"><tspan>Anteil erneuerbarer Energien (ohne Mobilität)</tspan></text><text x="10" text-anchor="start" class="highcharts-subtitle" style="color:#000000;font-size:0.9em;fill:#000000;" y="38"><tspan>Prozent</tspan></text><g class="highcharts-legend" transform="translate(10,40)"><rect fill="none" class="highcharts-legend-box" rx="0" ry="0" x="0" y="0" width="323" height="57" visibility="visible"></rect><g><g><g class="highcharts-legend-item highcharts-column-series highcharts-color-undefined highcharts-series-0" transform="translate(12,7)"><text x="21" style="color:#333333;font-size:1em;font-weight:normal;cursor:pointer;fill:#333333;" text-anchor="start" y="15"><tspan>Kanton Basel-Stadt</tspan></text><rect x="2" y="4" width="12" height="12" fill="#FF8028" class="highcharts-point"></rect></g><g class="highcharts-legend-item highcharts-column-series highcharts-color-undefined highcharts-series-1" transform="translate(156.328125,7)"><text x="21" y="15" style="color:#333333;font-size:1em;font-weight:normal;cursor:pointer;fill:#333333;" text-anchor="start"><tspan>Kanton Basel-Landschaft</tspan></text><rect x="2" y="4" width="12" height="12" fill="#B375AB" class="highcharts-point"></rect></g><g class="highcharts-legend-item highcharts-line-series highcharts-color-undefined highcharts-series-2" transform="translate(12,26)"><path fill="none" d="M 0 11 L 16 11" class="highcharts-graph" stroke-dasharray="6,2" stroke="#444444" stroke-width="2"></path><text x="21" y="15" style="color:#333333;font-size:1em;font-weight:normal;cursor:pointer;fill:#333333;" text-anchor="start"><tspan>Zielwert BL gemäss Energiegesetz (bis 2030)</tspan></text></g></g></g></g><g class="highcharts-axis-labels highcharts-xaxis-labels "><text x="89.8" style="color:#000000;cursor:default;font-size:0.9em;fill:#000000;" text-anchor="middle" transform="translate(0,0)" y="363" opacity="1"><tspan>2010</tspan></text><text x="175.39999999999998" style="color:#000000;cursor:default;font-size:0.9em;fill:#000000;" text-anchor="middle" transform="translate(0,0)" y="363" opacity="1"><tspan>2011</tspan></text><text x="261" style="color:#000000;cursor:default;font-size:0.9em;fill:#000000;" text-anchor="middle" transform="translate(0,0)" y="363" opacity="1"><tspan>2012</tspan></text><text x="346.59999999999997" style="color:#000000;cursor:default;font-size:0.9em;fill:#000000;" text-anchor="middle" transform="translate(0,0)" y="363" opacity="1"><tspan>2013</tspan></text><text x="432.2" style="color:#000000;cursor:default;font-size:0.9em;fill:#000000;" text-anchor="middle" transform="translate(0,0)" y="363" opacity="1"><tspan>2014</tspan></text></g><g class="highcharts-axis-labels highcharts-yaxis-labels "><text x="32" style="color:#000000;cursor:default;font-size:0.9em;fill:#000000;" text-anchor="end" transform="translate(0,0)" y="349" opacity="1"><tspan>0%</tspan></text><text x="32" style="color:#000000;cursor:default;font-size:0.9em;fill:#000000;" text-anchor="end" transform="translate(0,0)" y="302" opacity="1"><tspan>10%</tspan></text><text x="32" style="color:#000000;cursor:default;font-size:0.9em;fill:#000000;" text-anchor="end" transform="translate(0,0)" y="255" opacity="1"><tspan>20%</tspan></text><text x="32" style="color:#000000;cursor:default;font-size:0.9em;fill:#000000;" text-anchor="end" transform="translate(0,0)" y="208" opacity="1"><tspan>30%</tspan></text><text x="32" style="color:#000000;cursor:default;font-size:0.9em;fill:#000000;" text-anchor="end" transform="translate(0,0)" y="161" opacity="1"><tspan>40%</tspan></text><text x="32" style="color:#000000;cursor:default;font-size:0.9em;fill:#000000;" text-anchor="end" transform="translate(0,0)" y="114" opacity="1"><tspan>50%</tspan></text></g><g class="highcharts-axis-labels highcharts-yaxis-labels "></g><text x="10" class="highcharts-credits" text-anchor="start" style="cursor:default;color:#000000;font-size:0.8em;fill:#000000;" y="400"><tspan>Quelle: Statistisches Amt Basel-Stadt; Statistisches Amt Basel-Landschaft</tspan></text></svg>

<svg class="highcharts-root" xmlns="http://www.w3.org/2000/svg" width="485" height="415" font-family="arial" font-size="12">
    <defs>
        <clipPath id="a">
            <path fill="none" d="M0 0h428v235H0z"/>
        </clipPath>
    </defs>
    <rect fill="#fbfbfb" class="highcharts-background" width="485" height="415" rx="0" ry="0"/>
    <path fill="none" class="highcharts-plot-background" d="M47 109h428v235H47z"/>
    <text transform="translate(10 451)" class="highcharts-label" cursor="pointer">
        <tspan>&gt; Indikator-Details</tspan>
    </text>
    <g class="highcharts-grid highcharts-xaxis-grid">
        <path fill="none" class="highcharts-grid-line" d="M132.5 109v235m85-235v235m86-235v235m85-235v235m86-235v235m-428-235v235"/>
    </g>
    <g class="highcharts-grid highcharts-yaxis-grid">
        <path fill="none" stroke="#e6e6e6" class="highcharts-grid-line" d="M47 344.5h428m-428-47h428m-428-47h428m-428-47h428m-428-47h428m-428-48h428"/>
    </g>
    <path fill="none" class="highcharts-plot-border" d="M47 109h428v235H47z"/>
    <g class="highcharts-axis highcharts-xaxis">
        <path fill="none" class="highcharts-axis-line" stroke="#ccd6eb" d="M47 344.5h428"/>
    </g>
    <g class="highcharts-axis highcharts-yaxis">
        <path fill="none" class="highcharts-axis-line" d="M47 109v235"/>
    </g>
    <g class="highcharts-axis highcharts-yaxis">
        <path fill="none" class="highcharts-axis-line" d="M475 109v235"/>
    </g>
    <g class="highcharts-series-group">
        <g class="highcharts-series highcharts-series-0 highcharts-column-series highcharts-color-undefined" transform="translate(47 109)" clip-path="url(#a)">
            <path fill="#FF8028" class="highcharts-point" d="M20 46h21v190H20zm171-7h21v197h-21zm171-14h21v211h-21z"/>
        </g>
        <g class="highcharts-series highcharts-series-1 highcharts-column-series highcharts-color-undefined" transform="translate(47 109)" clip-path="url(#a)">
            <path fill="#B375AB" class="highcharts-point" d="M45 164h21v72H45zm172-22h21v94h-21zm171-39h21v133h-21z"/>
        </g>
        <g class="highcharts-series highcharts-series-2 highcharts-line-series highcharts-color-undefined" transform="translate(47 109)" clip-path="url(#a)">
            <path fill="none" d="M42.8 47h342.4" class="highcharts-graph" stroke="#444" stroke-width="2" stroke-dasharray="6,2"/>
        </g>
    </g>
    <text x="10" class="highcharts-title" y="20" color="#000" font-size="1.1em" font-weight="700">
        <tspan>Anteil erneuerbarer Energien (ohne Mobilität)</tspan>
    </text>
    <text x="10" class="highcharts-subtitle" y="38" color="#000" font-size=".9em">
        <tspan>Prozent</tspan>
    </text>
    <g class="highcharts-legend" transform="translate(10 40)">
        <rect fill="none" class="highcharts-legend-box" rx="0" ry="0" width="323" height="57"/>
        <g class="highcharts-legend-item highcharts-column-series highcharts-color-undefined highcharts-series-0">
            <text x="21" y="15" color="#333" font-size="1em" font-weight="400" cursor="pointer" fill="#333" transform="translate(12 7)">
                <tspan>Kanton Basel-Stadt</tspan>
            </text>
            <path fill="#FF8028" class="highcharts-point" d="M14 11h12v12H14z"/>
        </g>
        <g class="highcharts-legend-item highcharts-column-series highcharts-color-undefined highcharts-series-1">
            <text x="21" y="15" color="#333" font-size="1em" font-weight="400" cursor="pointer" fill="#333" transform="translate(156.328 7)">
                <tspan>Kanton Basel-Landschaft</tspan>
            </text>
            <path fill="#B375AB" class="highcharts-point" d="M158.328 11h12v12h-12z"/>
        </g>
        <g class="highcharts-legend-item highcharts-line-series highcharts-color-undefined highcharts-series-2">
            <path fill="none" d="M12 37h16" class="highcharts-graph" stroke-dasharray="6,2" stroke="#444" stroke-width="2"/>
            <text x="21" y="15" color="#333" font-size="1em" font-weight="400" cursor="pointer" fill="#333" transform="translate(12 26)">
                <tspan>Zielwert BL gemäss Energiegesetz (bis 2030)</tspan>
            </text>
        </g>
    </g>
    <g class="highcharts-axis-labels highcharts-xaxis-labels" text-anchor="middle" color="#000" cursor="default" font-size=".9em">
        <text x="89.8" y="363">
            <tspan>2010</tspan>
        </text>
        <text x="175.4" y="363">
            <tspan>2011</tspan>
        </text>
        <text x="261" y="363">
            <tspan>2012</tspan>
        </text>
        <text x="346.6" y="363">
            <tspan>2013</tspan>
        </text>
        <text x="432.2" y="363">
            <tspan>2014</tspan>
        </text>
    </g>
    <g class="highcharts-axis-labels highcharts-yaxis-labels" text-anchor="end" color="#000" cursor="default" font-size=".9em">
        <text x="32" y="349">
            <tspan>0%</tspan>
        </text>
        <text x="32" y="302">
            <tspan>10%</tspan>
        </text>
        <text x="32" y="255">
            <tspan>20%</tspan>
        </text>
        <text x="32" y="208">
            <tspan>30%</tspan>
        </text>
        <text x="32" y="161">
            <tspan>40%</tspan>
        </text>
        <text x="32" y="114">
            <tspan>50%</tspan>
        </text>
    </g>
    <text x="10" class="highcharts-credits" y="400" cursor="default" color="#000" font-size=".8em">
        <tspan>Quelle: Statistisches Amt Basel-Stadt; Statistisches Amt Basel-Landschaft</tspan>
    </text>
</svg>
